X: 111
T: a Trip from Stade
%%VWML:Thompsons1762-2277a-p56-0 
F:http://www.vwml.org/record/Thompsons1762/2277a/p56
Z: 2014 John Chambers <jc:trillian.mit.edu>
B: Thompson "Twenty four Country Dances for the Year 1762" p.56 #1
F: http://www.vwml.org/browse/browse-collections-dance-tune-books/browse-thompsons1762# 2014 -8-11
M: 6/8
L: 1/8
K: Gm
dB |GGG GdB | AAA Aec |BcA GA^F | GGG GdB |
GGG GdB | AAA Aec |BcA GA^F | GGG G :|
|: de |fdB Bdf | ecA Ace | dBG GBc | ddd dde | fdB Bdf |
ecA Ace |dBG GBc | dDD DdB |GGG GdB | AAA Aec |BcA GA^F | GGG G :| 
%------------------------- 
%%begintext align
%% The 1st Man sets to the 2d Wo: and turns her .|. 1st Wo: does
 %% the same .|: Gallop down the middle and up again and
%% cast off :|. right and left and turn :|:
%%endtext
%-------------------------
T: We'll all be Married
%R: hornpipe
Z: 2014 John Chambers <jc:trillian.mit.edu>
B: Thompson "Twenty four Country Dances for the Year 1762" p.56 #2
F: http://www.vwml.org/browse/browse-collections-dance-tune-books/browse-thompsons1762# 2014 -8-11
M: C
L: 1/8
K: G
|:\
B>GB>G d>dd>d | c>Ac>A e>ee>e |\
B>Gd>G e>fg2 | f>aA>^c d2D2 :|
|:\
d>Bd>B e>ee>e | c>Ac>A d>dd>d |\
B>GB>G c>cc>c | A>GF>E D4 |
G>DB>G d>dd>d | c>Ac>A e>ee>e |\
d>Bd>B g2fe | d>cB>A G4 :|
%-------------------------
%%begintext align
%% Cast off two Cu: .|. lead to the top and cast off .|: 4
%% hands across at bottom 4 hands round at top :|.
%% lead thro' the bottom and cast up right & left
%% at top :|
%%endtext
%-------------------------
